X: 1
T:Angus MacIsaac
R:jig
C:Jerry Holland
O:20th Century Cape Breton
S:Tune of the Month, March 1999
D:Fiddler's Choice, Odessey Records, 1999
A:<http://www.jerryholland.com>
N:Contacts ...
N:Bookings,Mechanicals etc.
N:..... Jerry Holland <jerry@cranfordpub.com>
N:Tune books, related recordings
N:..... Cranford Publications <http://www.cranfordpub.com>
B:Previously Unpublished.
H:Copyrights - Publisher:Fiddlesticks Music (SOCAN).
Z:This abc transcription is for personal use only
Z:provided this notice remains attached.
Z:Used by permission of the composer and publisher.
Z:Paul Stewart Cranford 
L:1/8
Q:300
M:6/8
K:G
E|DEG G2 A|Bde edB|gab age|dBA BGE|!
DEG G2 A|Bde edB|gab age|BAG G2:|!
|:A|B2 d dBd|ega aga|bag ege|BAA AGA|!
B2 d dBd|ega aga|bag ege|BAG G2:|!
